**kern
*ICvox
*G:
*M4/4
*clefG2
r;
=1
*>Letter>A
*>Label>Intro
0.86
=2
0.96
=3
1.06
=4
1.15
1.2
1.22
1.23
1.23
1.24
=5
*>Letter>B
*>Label>Verse
11.04
11.05
11.07
11.09
11.12
=6
11.14
11.15
11.16
11.17
11.18
11.19
11.2
11.2
11.22
11.23
11.23
=7
11.24
11.25
11.27
11.29
11.32
11.32
11.33
=8
11.34
11.35
11.37
11.38
11.39
11.4
11.41
11.42
11.42
=9
21.04
21.06
21.08
21.09
21.09
21.1
21.11
21.11
=10
21.14
21.16
21.18
21.18
21.19
21.2
21.21
21.23
=11
21.24
21.24
21.25
21.29
21.29
21.3
21.31
21.33
=12
21.34
21.39
21.4
21.44
.
=13
30.98
30.99
31
31.01
31.02
31.05
31.06
31.06
=14
31.07
31.09
31.1
31.12
31.14
31.16
=15
31.17
31.2
4r
31.22
4r
31.25
31.26
31.26
=16
31.27
31.29
31.32
.
4r
31.35
31.36
=17
40.99
41.05
41.08
=18
41.1
41.13
41.15
41.16
41.17
41.18
=19
41.2
41.21
41.25
=20
41.3
41.4
.
.
.
.
=21
*>Letter>B
*>Label>Chorus
50.94
50.99
.
4r
51.02
51.03
=22
51.04
51.07
51.09
51.11
51.12
51.13
16A
51.14
=23
51.14
51.17
8r
51.18
51.19
51.22
51.23
=24
51.24
51.26
51.29
51.32
51.34
=25
60.96
61.01
61.04
=26
61.06
61.07
61.11
61.13
61.14
=27
61.16
61.17
61.18
61.23
=28
61.26
61.36
.
.
.
=29
*>Letter>B
*>Label>Verse
70.89
70.99
.
.
.
.
.
.
.
.
=30
1r
71.09
.
.
.
.
.
.
=31
1r
71.19
.
.
.
.
.
.
.
=32
1r
71.29
.
.
.
=33
80.86
80.88
80.88
80.89
80.91
80.93
80.94
=34
80.96
80.98
[16g
80.99
81
81.01
81.02
81.03
81.05
81.06
=35
81.06
81.09
81.11
81.13
81.14
81.15
=36
81.17
81.22
81.23
81.25
=37
90.8
90.81
16d
90.82
90.85
.
8r
90.86
90.88
8.d
=38
90.9
90.91
90.92
90.94
90.95
90.96
8.B
90.98
8.A
=39
91
91.02
91.03
91.04
91.05
91.07
=40
91.1
91.11
91.12
91.14
91.15
91.17
91.19
=41
100.7
100.72
100.76
100.78
100.81
=42
4a
100.83
100.86
100.87
100.89
=43
100.91
100.92
100.96
=44
101.01
101.02
101.03
101.05
101.06
101.07
8e
101.08
=45
*>Letter>B
*>Label>Chorus
110.61
110.63
110.66
110.68
110.7
=46
110.71
110.72
110.72
110.74
110.75
110.76
110.77
110.77
110.79
=47
110.81
110.82
110.84
110.86
110.89
110.9
110.91
=48
110.91
110.93
110.94
110.96
111.01
.
.
=49
120.44
120.49
.
4r
120.52
=50
120.54
120.56
120.57
120.59
16D
120.6
120.65
.
=51
8.r
120.67
16A
120.67
120.71
.
.
.
4.A
120.75
.
=52
4G
120.78
120.8
2r
120.85
.
.
.
=53
*>Letter>B
*>Label>Interlude
130.18
130.2
130.2
130.21
130.23
=54
130.28
130.39
.
.
.
.
.
.
=55
1r
130.49
.
.
.
.
=56
4r
130.51
130.52
130.53
130.54
130.54
130.56
130.56
130.57
=57
140.07
140.09
140.1
140.11
140.12
140.12
140.13
140.14
140.15
=58
140.17
140.19
140.23
140.23
140.24
140.25
=59
140.28
140.3
.
4A
140.33
140.33
140.35
140.37
=60
140.38
140.38
140.39
140.4
4r
140.43
.
2r
140.48
.
.
=61
149.98
150.03
150.04
150.07
=62
150.08
150.09
150.1
150.13
.
2r
150.18
.
.
.
=63
4r
150.21
.
8r
150.22
150.24
8B
150.26
150.26
150.27
=64
150.28
150.29
150.3
150.31
150.32
150.33
150.38
.
.
.
=65
159.85
159.9
.
8.g
159.92
159.92
159.95
=66
4.r
159.99
16r
159.99
160
160.01
160.01
160.02
160.04
16A
=67
160.05
160.08
16B]
160.08
160.09
160.09
160.1
=68
160.15
160.16
160.18
160.19
160.2
160.22
160.24
=69
*>Letter>B
*>Label>Chorus
169.65
169.67
169.7
169.72
169.73
[8g
169.75
=70
4g]
169.77
169.8
169.81
169.82
169.84
8r
=71
169.85
169.9
.
4r
169.92
169.94
=72
169.95
169.96
169.96
169.98
170
170.05
=73
179.47
179.47
179.49
179.52
179.54
179.55
179.56
=74
179.57
179.58
179.59
179.62
4r
179.65
179.65
179.66
=75
179.67
179.68
179.68
179.7
179.72
2r
179.77
.
.
.
=76
[2b
179.82
8b]
179.84
179.84
179.85
=77
*>Letter>B
*>Label>Outro
189.25
189.28
189.31
189.32
189.33
189.36
=78
8r
189.37
189.4
8e
189.41
189.43
189.43
189.45
=79
189.46
189.47
189.48
189.51
16B]
189.52
189.52
189.53
189.54
189.55
=80
189.56
189.57
189.59
189.59
189.61
189.61
189.63
189.63
189.64
189.65
=81
199
199.03
.
8r
199.05
199.1
=82
2r
199.15
.
4r
199.18
=83
199.2
199.21
199.22
199.23
199.23
199.24
199.25
199.3
.
=84
1r
=85
208.71
208.76
8e
208.78
208.79
=86
208.82
208.85
208.87
208.87
208.89
8e]
208.91
=87
208.92
208.97
8g
208.98
209
=88
209.02
=89
218.43
=90
218.53
=91
218.63
=92
218.73
228.44
r;
*-
!!!BillboardChartDate: 1970/11/28
!!!BillboardPeak: 61
!!!BillboardWeeksOnChart: 7
!!!COC: David Ruffin & Jimmy Ruffin
!!!ENC: Nathaniel Condit-Schultz
!!!EST: Awating manual error checking and editing.
!!!OTL: Stand By Me
!!!RDF**chordsym: original McGill chord annotation + (implied pitch class set, with bass pitch in first position)
!!!RDF**harmony: **recip + pitch class of root + harmonic quality
!!!RDF**leadinstrument: original McGill primary instrumentation annotation
!!!RDF**phrase: newline = linebreak in original McGill transcription
!!!RDF**timestamp: McGill audio timestamp in seconds
!!!RDT: 2017/01/12/
!!!SampleActualRank: 61
!!!SampleID#: 0119
!!!SampleTargetRank: 61
